icon_installer/data/icons/scalable/actions/show-resize-mode-symbolic.svg

<?xml version="1.0" encoding="UTF-8"?>
<svg height="16px" viewBox="0 0 16 16" width="16px" xmlns="http://www.w3.org/2000/svg">
    <g fill="#222222">
        <path d="m 9 1 c -0.714844 0 -1.371094 0.382812 -1.730469 1 h -1.269531 c -1.671875 0 -3 1.359375 -3 3.023438 v 3.246093 c -0.617188 0.355469 -1 1.015625 -1 1.730469 s 0.382812 1.371094 1 1.730469 v 3.269531 h 2 v -3.269531 c 0.617188 -0.355469 1 -1.015625 1 -1.730469 s -0.382812 -1.371094 -1 -1.730469 v -3.246093 c 0 -0.390626 0.636719 -1.023438 1 -1.023438 h 1.269531 c 0.355469 0.617188 1.015625 1 1.730469 1 s 1.371094 -0.382812 1.730469 -1 h 4.269531 v -2 h -4.269531 c -0.355469 -0.617188 -1.015625 -1 -1.730469 -1 z m 0 1 c 0.550781 0 1 0.449219 1 1 s -0.449219 1 -1 1 s -1 -0.449219 -1 -1 s 0.449219 -1 1 -1 z m -5 7 c 0.550781 0 1 0.449219 1 1 s -0.449219 1 -1 1 s -1 -0.449219 -1 -1 s 0.449219 -1 1 -1 z m 0 0"/>
        <path d="m 15 4 v 11 h -10 v -11 z m 0 0" fill-opacity="0.34902"/>
    </g>
</svg>

<svg xmlns="http://www.w3.org/2000/svg" width="16" height="16"><g fill="#222"><path d="M9 1c-.715 0-1.371.383-1.73 1H6C4.328 2 3 3.36 3 5.023V8.27a1.998 1.998 0 0 0 0 3.46V15h2v-3.27a1.998 1.998 0 0 0 0-3.46V5.023C5 4.633 5.637 4 6 4h1.27a1.998 1.998 0 0 0 3.46 0H15V2h-4.27A1.998 1.998 0 0 0 9 1zm0 1c.55 0 1 .45 1 1s-.45 1-1 1-1-.45-1-1 .45-1 1-1zM4 9c.55 0 1 .45 1 1s-.45 1-1 1-1-.45-1-1 .45-1 1-1zm0 0"/><path fill-opacity=".349" d="M15 4v11H5V4zm0 0"/></g></svg>
